<?xml version="1.0" encoding="UTF-8"?>
<map version="1.10" tiledversion="1.11.2" orientation="orthogonal" renderorder="right-down" width="30" height="20" tilewidth="32" tileheight="32" infinite="0" nextlayerid="6" nextobjectid="49">
 <editorsettings>
  <export target="../public/assets/tilemaps/mapatierranivel3.json" format="json"/>
 </editorsettings>
 <tileset firstgid="1" name="objetos tierra" tilewidth="32" tileheight="32" tilecount="196" columns="14">
  <image source="../public/assets/tilesets/objetos tierra.png" width="448" height="448"/>
 </tileset>
 <tileset firstgid="197" name="pinchos" tilewidth="32" tileheight="32" tilecount="1" columns="1">
  <image source="../public/assets/tilesets/pinchos.png" width="32" height="32"/>
 </tileset>
 <layer id="3" name="Tierranivel3" width="30" height="20">
  <data encoding="csv">
0,0,0,0,0,0,0,0,0,0,0,0,0,0,0,0,0,0,0,0,0,0,0,0,0,25,0,0,0,0,
0,0,0,0,0,0,0,0,0,0,0,0,0,0,0,0,0,0,0,0,0,0,0,0,0,25,0,0,0,0,
0,0,0,0,0,0,0,0,0,0,0,0,0,0,0,0,0,0,0,0,197,197,0,0,0,25,0,0,0,0,
0,0,0,0,0,0,0,0,0,0,0,0,0,0,0,0,0,0,0,0,0,0,0,0,0,0,0,0,0,0,
0,0,1,2,3,4,0,0,0,1,3,4,0,0,1,2,3,4,0,0,0,0,0,0,0,0,0,0,0,0,
49,0,15,16,17,18,0,197,0,15,17,18,0,197,15,16,17,18,0,0,0,0,0,0,0,25,0,0,0,0,
63,0,0,0,0,0,0,0,0,0,0,0,0,0,0,0,0,0,0,48,49,0,0,0,0,25,0,0,0,0,
0,0,0,0,0,0,0,0,0,0,0,0,0,0,0,0,0,0,0,62,63,0,0,0,0,25,0,0,0,0,
1,2,3,4,0,0,0,0,197,197,0,0,43,44,45,46,0,0,0,0,0,0,0,48,49,0,0,0,0,0,
15,16,17,18,0,0,0,0,0,0,0,0,57,58,59,60,0,0,0,0,0,0,0,62,63,0,0,0,0,0,
29,30,31,32,0,0,48,49,0,0,0,0,0,0,0,0,197,197,0,48,49,130,0,0,0,25,0,0,0,0,
0,0,0,0,0,0,62,63,0,0,0,0,0,0,0,0,0,0,0,62,63,144,0,0,0,25,0,0,0,0,
0,0,0,0,0,0,0,0,0,0,0,0,0,0,0,0,0,0,0,0,0,0,0,48,49,25,0,0,0,0,
0,0,0,0,0,0,0,0,0,48,49,0,0,0,0,0,0,0,0,0,0,0,0,62,63,25,0,0,0,0,
0,0,0,0,0,197,197,0,0,62,63,0,0,0,0,0,0,0,0,48,49,0,0,0,0,25,0,0,0,0,
0,0,0,0,0,0,0,0,0,0,0,0,0,0,0,0,0,0,0,62,63,0,0,0,0,25,25,0,0,0,
0,0,0,0,0,0,0,0,0,0,0,0,0,48,49,0,0,0,0,0,0,0,0,48,49,25,0,0,0,0,
0,0,67,68,69,70,0,0,67,68,69,70,0,62,63,0,197,197,0,67,68,69,70,62,63,25,0,0,0,0,
16,16,16,16,16,16,16,16,16,16,16,16,16,16,16,16,16,16,16,16,16,16,16,16,16,16,16,16,16,16,
128,128,128,128,128,128,128,128,128,128,128,128,128,128,128,128,128,128,128,128,128,128,128,128,128,128,128,128,128,128
</data>
 </layer>
 <objectgroup id="4" name="ColTierranivel3">
  <object id="2" x="-144" y="-134" width="46" height="780"/>
  <object id="3" x="-98" y="574" width="1062" height="70"/>
  <object id="4" x="894" y="-186" width="70" height="754"/>
  <object id="6" x="28" y="282" width="72" height="50"/>
  <object id="7" x="208" y="346" width="28" height="28"/>
  <object id="8" x="300" y="444" width="34" height="30"/>
  <object id="9" x="432" y="540" width="28" height="34"/>
  <object id="11" x="626" y="478" width="24" height="30"/>
  <object id="12" x="752" y="542" width="26" height="30"/>
  <object id="13" x="752" y="414" width="26" height="30"/>
  <object id="14" x="624" y="350" width="28" height="32"/>
  <object id="15" x="750" y="282" width="30" height="34"/>
  <object id="16" x="622" y="222" width="32" height="32"/>
  <object id="18" x="472" y="158" width="82" height="28"/>
  <object id="19" x="406" y="276" width="76" height="38"/>
  <object id="20" x="86" y="150" width="98" height="36"/>
  <object id="21" x="-14" y="182" width="30" height="34"/>
  <object id="44" x="308" y="156" width="64" height="28"/>
 </objectgroup>
 <objectgroup id="5" name="pinchos">
  <object id="33" x="266" y="258" width="18" height="20">
   <ellipse/>
  </object>
  <object id="36" x="522" y="326" width="44" height="14">
   <ellipse/>
  </object>
  <object id="39" x="518" y="552" width="56" height="18">
   <ellipse/>
  </object>
  <object id="40" x="166" y="458" width="52" height="12">
   <ellipse/>
  </object>
  <object id="43" x="650" y="70" width="48" height="18">
   <ellipse/>
  </object>
  <object id="45" x="230" y="164" width="18" height="18">
   <ellipse/>
  </object>
  <object id="46" x="298" y="262" width="16" height="16">
   <ellipse/>
  </object>
  <object id="47" x="422" y="166" width="2" height="2">
   <ellipse/>
  </object>
  <object id="48" x="424" y="166" width="18" height="20">
   <ellipse/>
  </object>
 </objectgroup>
</map>
