<?xml version="1.0" encoding="UTF-8"?>
<map version="1.10" tiledversion="1.11.2" orientation="orthogonal" renderorder="right-down" width="30" height="20" tilewidth="32" tileheight="32" infinite="0" nextlayerid="6" nextobjectid="39">
 <editorsettings>
  <export format="json"/>
 </editorsettings>
 <tileset firstgid="1" name="objetos tierra" tilewidth="32" tileheight="32" tilecount="196" columns="14">
  <image source="../public/assets/tilesets/objetos tierra.png" width="448" height="448"/>
 </tileset>
 <tileset firstgid="197" name="pinchos" tilewidth="32" tileheight="32" tilecount="1" columns="1">
  <image source="../public/assets/tilesets/pinchos.png" width="32" height="32"/>
 </tileset>
 <layer id="1" name="Tierra" width="30" height="20">
  <data encoding="csv">
0,0,0,0,0,0,0,0,0,0,0,0,0,0,0,0,0,0,0,0,0,0,0,0,0,0,0,0,0,0,
0,0,0,0,0,0,0,0,0,0,0,0,0,0,0,0,0,0,0,0,0,0,0,0,0,0,0,0,0,0,
0,0,0,0,0,0,0,0,0,0,0,0,0,0,0,0,0,0,0,0,0,47,48,49,0,0,0,0,0,0,
0,0,48,49,0,0,0,0,0,0,0,0,0,0,0,0,0,0,0,0,0,61,62,63,0,0,0,0,0,0,
0,0,62,63,0,0,0,0,0,0,0,0,0,0,0,0,0,0,0,0,0,0,0,0,0,0,0,0,0,0,
0,0,0,0,0,0,48,49,0,0,0,0,1,2,3,4,0,0,1,2,3,4,0,0,0,0,0,0,0,0,
0,0,0,0,0,0,62,63,0,0,0,0,15,16,17,18,0,0,15,16,17,18,0,0,0,0,0,0,0,0,
0,0,0,0,0,0,0,0,0,0,0,0,29,30,31,32,0,0,29,30,31,32,0,0,0,0,0,0,0,0,
1,2,3,4,0,0,0,0,0,0,0,0,0,0,0,0,0,0,0,0,0,0,0,0,0,0,0,0,0,0,
15,16,17,18,0,0,0,0,0,0,0,0,0,0,0,0,0,0,0,0,0,0,0,0,0,0,0,0,0,0,
29,30,31,32,0,0,0,1,2,3,4,0,0,0,0,0,0,0,0,0,0,0,0,0,0,0,0,0,0,0,
0,0,0,48,49,0,0,15,16,17,18,0,0,0,0,0,0,197,0,0,0,0,0,0,0,0,0,0,0,0,
0,0,0,62,63,0,0,29,30,31,32,0,0,0,0,0,0,0,0,0,0,0,166,166,167,0,0,0,0,0,
0,0,0,0,0,0,0,0,0,0,0,0,0,48,49,0,0,0,0,0,0,179,180,181,180,182,0,0,0,0,
0,0,0,0,47,48,49,0,0,0,0,0,0,62,63,0,0,0,0,0,0,179,180,180,180,182,0,0,0,0,
0,0,0,0,61,62,63,0,0,0,48,49,0,0,0,0,0,0,0,0,0,179,180,125,181,182,0,0,0,0,
0,0,0,0,75,76,77,0,0,0,62,63,0,0,0,155,156,157,158,0,0,0,110,125,0,0,0,0,0,0,
67,68,69,70,89,90,91,67,68,69,70,0,197,197,0,169,170,171,68,69,70,197,124,125,0,0,0,0,0,0,
16,16,16,16,16,16,16,16,16,16,16,16,16,16,16,16,16,16,16,16,16,16,16,16,16,59,59,59,59,59,
72,72,72,72,72,72,72,72,72,72,72,72,72,72,72,72,72,72,72,72,72,72,72,72,72,72,72,72,72,72
</data>
 </layer>
 <objectgroup id="2" name="coltierra">
  <object id="1" x="13.6149" y="275.323" width="105.893" height="65.0488"/>
  <object id="2" x="-96" y="574.85" width="1054.92" height="64.0496"/>
  <object id="3" x="496.187" y="517.365" width="80.1765" height="55.9723"/>
  <object id="4" x="137.662" y="524.929" width="77.151" height="48.4084"/>
  <object id="7" x="170.942" y="470.47" width="45.3829" height="49.9212"/>
  <object id="9" x="403.908" y="183.044" width="93.7914" height="56.69"/>
  <object id="10" x="709.486" y="90.7658" width="46.8957" height="34.7936"/>
  <object id="11" x="747.305" y="482.572" width="22.6915" height="95.3041"/>
  <object id="17" x="884.967" y="-152.538" width="71.0999" height="727.603"/>
  <object id="18" x="-93.3333" y="-200" width="37.3333" height="774.667"/>
  <object id="29" x="246.667" y="346.667" width="86.6667" height="50.6667"/>
  <object id="30" x="420" y="445.333" width="49.3333" height="32"/>
  <object id="31" x="597.333" y="189.333" width="90.6667" height="49.3333"/>
  <object id="32" x="198.667" y="190.667" width="45.3333" height="29.3333"/>
  <object id="33" x="72" y="125.333" width="41.3333" height="28"/>
  <object id="35" x="105.333" y="378.667" width="36" height="30.6667"/>
  <object id="36" x="329.333" y="509.333" width="34.6667" height="26.6667"/>
 </objectgroup>
 <objectgroup id="5" name="pinchos">
  <object id="25" x="394.667" y="553.333" width="45.3333" height="14.6667"/>
  <object id="26" x="680" y="553.333" width="13.3333" height="12"/>
  <object id="38" x="551.304" y="360.605" width="19.0105" height="11.8816"/>
 </objectgroup>
</map>
