<?xml version="1.0" encoding="UTF-8"?>
<map version="1.10" tiledversion="1.11.2" orientation="orthogonal" renderorder="right-down" width="30" height="20" tilewidth="32" tileheight="32" infinite="0" nextlayerid="4" nextobjectid="48">
 <editorsettings>
  <export target="../public/assets/tilemaps/mapatierranivel2.json" format="json"/>
 </editorsettings>
 <tileset firstgid="1" name="objetos tierra" tilewidth="32" tileheight="32" tilecount="196" columns="14">
  <image source="../public/assets/tilesets/objetos tierra.png" width="448" height="448"/>
 </tileset>
 <tileset firstgid="197" name="tilesetnivel2" tilewidth="32" tileheight="32" tilecount="196" columns="14">
  <image source="../public/assets/tilesets/objetos tierra.png" width="448" height="448"/>
 </tileset>
 <tileset firstgid="393" name="pinchos" tilewidth="32" tileheight="32" tilecount="1" columns="1">
  <image source="../public/assets/tilesets/pinchos.png" width="32" height="32"/>
 </tileset>
 <layer id="1" name="Tierranivel2" width="30" height="20">
  <data encoding="csv">
0,0,0,0,0,0,0,0,0,0,0,0,0,0,0,0,0,0,0,0,0,0,0,0,0,39,0,0,0,0,
0,0,0,0,0,0,0,0,0,0,0,0,0,0,0,0,0,0,0,0,0,0,0,0,0,39,0,0,0,0,
0,0,0,0,0,0,0,0,0,47,48,49,0,0,0,0,0,0,0,0,0,0,0,0,0,39,0,0,0,0,
0,0,0,0,0,0,0,0,0,61,62,63,0,0,0,0,0,0,0,0,393,0,0,0,0,39,0,0,0,0,
0,0,43,44,45,46,0,0,0,75,76,77,0,0,0,48,49,0,0,0,0,0,0,0,0,39,0,0,0,0,
4,0,57,58,59,60,0,393,0,89,90,91,0,0,0,62,63,0,0,0,0,0,0,0,0,39,0,0,0,0,
18,0,0,0,0,0,0,0,0,0,0,0,0,0,0,0,0,0,0,48,49,0,0,0,0,39,0,0,0,0,
0,0,0,0,0,0,0,0,0,0,0,0,0,0,0,0,0,0,0,62,63,0,0,0,0,39,0,0,0,0,
1,2,3,4,0,0,0,0,0,0,0,0,0,0,0,0,0,0,0,0,0,0,0,0,393,39,0,0,0,0,
15,16,17,18,0,0,48,49,0,0,0,0,0,0,0,0,0,0,0,0,0,43,44,45,46,39,0,0,0,201,
29,30,31,32,393,0,62,63,0,0,0,0,393,0,0,0,0,0,0,0,0,57,58,59,60,39,0,0,0,215,
0,0,0,0,0,0,0,0,0,0,0,0,0,0,0,48,49,0,0,0,0,0,0,0,0,39,0,0,0,229,
0,0,0,0,0,0,1,2,3,4,0,0,0,0,0,62,63,1,2,4,0,1,2,3,2,3,4,0,0,0,
0,0,0,0,0,0,15,16,17,18,0,0,0,0,75,76,77,15,16,18,0,15,16,17,16,17,18,0,0,0,
0,0,0,0,48,49,29,30,31,32,0,0,0,0,89,90,91,29,30,32,0,29,30,31,30,31,32,0,0,0,
0,0,0,0,62,63,0,0,0,0,0,96,97,98,0,0,0,0,0,0,0,0,0,0,0,39,0,0,0,0,
0,0,0,0,0,0,0,0,0,0,0,110,111,112,0,0,0,0,0,0,0,0,0,0,0,39,0,0,0,0,
0,0,67,68,69,70,393,67,68,69,70,124,125,126,0,67,68,69,70,0,393,68,69,70,393,39,39,0,0,0,
16,16,16,16,16,16,16,16,16,16,16,16,16,16,16,16,16,16,16,16,16,16,16,16,16,17,16,16,16,16,
268,268,268,268,268,268,268,268,268,268,268,268,268,268,268,268,268,268,268,268,268,268,268,268,268,72,72,72,72,72
</data>
 </layer>
 <objectgroup id="3" name="pinchos">
  <object id="37" x="646" y="100" width="18" height="20">
   <ellipse/>
  </object>
  <object id="38" x="774" y="264" width="20" height="16">
   <ellipse/>
  </object>
  <object id="39" x="390" y="328" width="20" height="14">
   <ellipse/>
  </object>
  <object id="40" x="202" y="550" width="16" height="16">
   <ellipse/>
  </object>
  <object id="42" x="648" y="550" width="16" height="18">
   <ellipse/>
  </object>
  <object id="43" x="772" y="550" width="22" height="20">
   <ellipse/>
  </object>
  <object id="44" x="138" y="330" width="14" height="16">
   <ellipse/>
  </object>
  <object id="45" x="234" y="170" width="14" height="18">
   <ellipse/>
  </object>
 </objectgroup>
 <objectgroup id="2" name="ColTierranivel2">
  <object id="3" x="384" y="493.333" width="32" height="81.3333"/>
  <object id="5" x="1.33333" y="576" width="957.333" height="62.6667"/>
  <object id="9" x="206.667" y="317.333" width="26.6667" height="30.6667"/>
  <object id="10" x="622.667" y="224" width="32" height="29.3333"/>
  <object id="16" x="697.333" y="412" width="147.333" height="50.6667"/>
  <object id="17" x="340" y="100" width="28" height="82.6667"/>
  <object id="18" x="314.667" y="154.667" width="30.6667" height="26.6667"/>
  <object id="19" x="25.3333" y="286.667" width="81.3333" height="44"/>
  <object id="20" x="92" y="154.667" width="62.6667" height="30.6667"/>
  <object id="22" x="488" y="154.667" width="38.6667" height="30.6667"/>
  <object id="24" x="696" y="313.333" width="72" height="33.3333"/>
  <object id="25" x="497.333" y="382.667" width="28" height="90.6667"/>
  <object id="26" x="473.333" y="436" width="20" height="37.3333"/>
  <object id="28" x="216" y="414.667" width="86.6667" height="45.3333"/>
  <object id="29" x="-129.333" y="-2.66667" width="80" height="581.333"/>
  <object id="30" x="-129.333" y="576" width="128" height="64"/>
  <object id="31" x="-130.667" y="-228" width="81.3333" height="222.667"/>
  <object id="32" x="914.667" y="-138.667" width="44" height="713.333"/>
  <object id="35" x="576" y="416" width="42" height="46"/>
  <object id="46" x="142" y="476" width="28" height="28"/>
  <object id="47" x="4" y="182" width="12" height="34"/>
 </objectgroup>
</map>
